src/assets/images/attachment.svg

<svg width="24" height="24" viewBox="0 0 24 24" fill="none" xmlns="http://www.w3.org/2000/svg">
  <path d="M4.92888 19.571C2.77928 17.4214 2.77928 13.9424 4.92888 11.7928L12.3535 4.36818C13.9162 2.80547 16.4477 2.80547 18.0104 4.36818C19.5731 5.93088 19.5731 8.46233 18.0104 10.025L11.9999 16.0354C11.0241 17.0112 9.44022 17.0112 8.46442 16.0354C7.48861 15.0596 7.48861 13.4757 8.46442 12.4999L13.7677 7.1966L15.1819 8.61082L9.81499 13.9778C9.42608 14.3667 10.1332 15.0738 10.5221 14.6849L16.5961 8.61082C17.374 7.833 17.374 6.56021 16.5961 5.78239C15.8183 5.00457 14.5455 5.00457 13.7677 5.78239L6.3431 13.207C4.97838 14.5717 4.97838 16.792 6.3431 18.1568C7.70781 19.5215 9.92813 19.5215 11.2928 18.1568L18.0104 11.4392L19.4246 12.8535L12.7071 19.571C10.5575 21.7206 7.07849 21.7206 4.92888 19.571Z" fill="#0380DA"/>
</svg>

<svg width="24" height="24" fill="none" xmlns="http://www.w3.org/2000/svg"><path d="M4.929 19.571a5.497 5.497 0 010-7.778l7.425-7.425a3.999 3.999 0 015.656 0 3.999 3.999 0 010 5.657L12 16.035A2.5 2.5 0 018.464 12.5l5.304-5.303 1.414 1.414-5.367 5.367c-.389.389.318 1.096.707.707l6.074-6.074a2.006 2.006 0 000-2.829 2.006 2.006 0 00-2.828 0l-7.425 7.425a3.504 3.504 0 000 4.95 3.504 3.504 0 004.95 0l6.717-6.718 1.415 1.415-6.718 6.717a5.497 5.497 0 01-7.778 0z" fill="#0380DA"/></svg>
